svgs/solid/circle-exclamation-check.svg

<svg xmlns="http://www.w3.org/2000/svg" viewBox="0 0 640 512"><!--! Font Awesome Pro 6.2.0 by @fontawesome - https://fontawesome.com License - https://fontawesome.com/license (Commercial License) Copyright 2022 Fonticons, Inc. --><path d="M506.5 203L480 229.5l-18.7-18.7c-25-25-65.5-25-90.5 0s-25 65.5 0 90.5l64 64c11.9 11.9 27.4 18.2 43 18.7c-44.3 76.5-127 128-221.8 128C114.6 512 0 397.4 0 256S114.6 0 256 0C379.2 0 482.1 87 506.5 203zM280 152c0-13.3-10.7-24-24-24s-24 10.7-24 24V264c0 13.3 10.7 24 24 24s24-10.7 24-24V152zM256 384c17.7 0 32-14.3 32-32s-14.3-32-32-32s-32 14.3-32 32s14.3 32 32 32zM625 209L497 337c-9.4 9.4-24.6 9.4-33.9 0l-64-64c-9.4-9.4-9.4-24.6 0-33.9s24.6-9.4 33.9 0l47 47L591 175c9.4-9.4 24.6-9.4 33.9 0s9.4 24.6 0 33.9z"/></svg>

<svg xmlns="http://www.w3.org/2000/svg" viewBox="0 0 640 512"><!--! Font Awesome Pro 6.1.2 by @fontawesome - https://fontawesome.com License - https://fontawesome.com/license (Commercial License) Copyright 2022 Fonticons, Inc. --><path d="M506.5 202.1L480 229.5L461.3 210.7C436.3 185.8 395.7 185.8 370.7 210.7C345.8 235.7 345.8 276.3 370.7 301.3L434.7 365.3C446.7 377.2 462.1 383.4 477.8 383.1C433.5 460.5 350.8 512 256 512C114.6 512 0 397.4 0 256C0 114.6 114.6 0 256 0C379.2 0 482.1 87.04 506.5 202.1H506.5zM280 152C280 138.7 269.3 128 256 128C242.7 128 232 138.7 232 152V264C232 277.3 242.7 288 256 288C269.3 288 280 277.3 280 264V152zM256 384C273.7 384 288 369.7 288 352C288 334.3 273.7 320 256 320C238.3 320 224 334.3 224 352C224 369.7 238.3 384 256 384zM499.8 339.8C488.9 350.7 471.1 350.7 460.2 339.8L396.2 275.8C385.3 264.9 385.3 247.1 396.2 236.2C407.1 225.3 424.9 225.3 435.8 236.2L480 280.4L588.2 172.2C599.1 161.3 616.9 161.3 627.8 172.2C638.7 183.1 638.7 200.9 627.8 211.8L499.8 339.8z"/></svg>
